src/dsmComponents/Icons/edit-2-16px.svg

<svg width="16" height="16" xmlns="http://www.w3.org/2000/svg" xmlns:xlink="http://www.w3.org/1999/xlink"><defs><path d="M8.1 3.5l4.4 4.4-7.8 7.8c-.2.2-.4.3-.7.3H1c-.6 0-1-.4-1-1v-3c0-.3.1-.5.3-.7l7.8-7.8zM11.3.3c.4-.4 1-.4 1.4 0l3 3c.4.4.4 1 0 1.4l-1.8 1.8-4.4-4.4z" id="edit-2-16px_svg__a"/></defs><use fill="#737373" xlink:href="#edit-2-16px_svg__a" fill-rule="evenodd"/></svg>

<?xml version="1.0" encoding="UTF-8"?>
<svg width="16px" height="16px" viewBox="0 0 16 16" version="1.1" xmlns="http://www.w3.org/2000/svg" xmlns:xlink="http://www.w3.org/1999/xlink">
    <!-- Generator: Sketch 59.1 (86144) - https://sketch.com -->
    <title>edit-2-16px</title>
    <desc>Created with Sketch.</desc>
    <defs>
        <path d="M8.1,3.5 L12.5,7.9 L4.7,15.7 C4.5,15.9 4.3,16 4,16 L4,16 L1,16 C0.4,16 0,15.6 0,15 L0,15 L0,12 C0,11.7 0.1,11.5 0.3,11.3 L0.3,11.3 L8.1,3.5 Z M11.3,0.3 C11.7,-0.1 12.3,-0.1 12.7,0.3 L12.7,0.3 L15.7,3.3 C16.1,3.7 16.1,4.3 15.7,4.7 L15.7,4.7 L13.9,6.5 L9.5,2.1 Z" id="path-1"></path>
    </defs>
    <g id="Final" stroke="none" stroke-width="1" fill="none" fill-rule="evenodd">
        <g id="All-Nucleo-Icons" transform="translate(-319.000000, -2972.000000)">
            <g id="Solo/Nucleo/16px/edit-2" transform="translate(315.000000, 2968.000000)">
                <g id="pen-01" transform="translate(4.000000, 4.000000)">
                    <g id="Colour/Default-Colour">
                        <mask id="mask-2" fill="white">
                            <use xlink:href="#path-1"></use>
                        </mask>
                        <g id="Mask" fill-rule="nonzero"></g>
                        <g id="colour/neutral/chia" mask="url(#mask-2)" fill="#737373">
                            <g transform="translate(-24.000000, -24.000000)" id="Colour">
                                <rect x="0" y="0" width="64" height="64"></rect>
                            </g>
                        </g>
                    </g>
                </g>
            </g>
        </g>
    </g>
</svg>
